X:1
T:G minor Thomas Ravenscroft, 1621
T:William Kethe, 1560 (Psalm 104)          55. 55. 65. 65.              
T:Psalm 104 Transcribed from Ravenscroft, The Whole Booke of Psalmes, 1621.
%%score [ ( 1 2 ) ( 3 4 ) ]
L:1/8
Q:1/4=100
M:6/4
K:Bb
V:1 treble nm="Soprano\nAlto" snm="S.\nA."
V:2 treble 
V:3 bass nm="Tenor\nBass" snm="T. \nB."
V:4 bass 
V:1
"^1. My soul, Praise the Lord, speak good of his name;   O   Lord  our  great  God,  how  dost  thou  appear!    So    passing  in   glory,    \n    With   light  as    a   robe   thou  hast  thyself   clad,      Whereby  all     the   earth  thy  greatness  may  see:  The heavens in such sort" G2 | %1
 B2 A2 G2 d4 B2 | c2 e2 d2 c4 c2 | d2 f2 =e2 f4 B2 | d2 c2 c2 B4 z2 | B2 B2 B2 c2 d2 B2 | %6
"^1.  that  great  is  thy      fame,  Ho–nor   and   ma–jes–ty     in  thee  shine most ___________  clear. \n2. thou  al – so  hast  spread,   That  they  to   a   curtain     com – par – ed may ___________   be." B2 c2 e2 d2 c4 | %7
 g4 f2 B2 e2 d2 | c4 B2 c2 d4 | A6 G6 :| %10
V:2
 D2 | D2 D2 G2 ^F4 E2 | E2 C2 F2 F4 F2 | F3 F G2 A4 G2 | F2 G2 F>E D4 x2 | D2 E2 F2 E2 F2 D2 | %6
 E2 G2 G2 G>F E4 | E4 B,3 B, C2 F2 | F4 (D>E F2) G2 D2- | D2 D4 D6 :| %10
V:3
"^2.  His   chamber-beams  lie     in the clouds full sure,  Which as his chariots  are  made  him  to   bear: And there with much swiftness \n      He    maketh  his  spirits      as  he – ralds   to   go,    And  lightnings  to serve  we  see  al – so pressed;          His  will  to  accomplish""^3.  All   things  on  thee  wait, thou dost them relieve,  And thou in  due  time full  well  dost them feed. Now when it doth please thee\n     Thou openest  thy  hand, and they find such grace,  That  they with good things  are fil–led  we see;           But sore they are troubled" B,2 | %1
 G,2 A,2 B,2 A,4 G,2 | G,2 G,2 B,2 A,4 A,2 | B,2 D2 C2 C4 B,2 | B,2 B,2 A,2 B,4 z2 | %5
 F,2 G,2 A,2 A,2 B,2 F,2 | %6
"^2.  his course doth endure,   Up – on   the wings   riding    of ___winds   in ______  the               air. \n      they  run  to  and   fro,     To  save  or consume things    as ___  seemeth   ______  him            best.""^3.   the same for to give,     They   gather   full    gladly        those  things  which   they ________  need:\n      if thou turn thy face,     For    if  thou  their breath      take   vile  dust  then   they ________   be.""^___________________________________\nEdited by B. C. Johnston, 2016\n   1. All notes one-quarter value of original.\n   2. Original is marked \"3/2\" –  converted to 6/4 time\n   3. Measure 7, \nAlto\n: sharp on last note (E\n\n) ignored.\n   4. Converted to two staffs: original \nTenor\n becomes \nSoprano\n, up one octave; \nMedius\n bcomes \nAlto\n;\n        Cantus becomes Tenor, down an octave; and Bass remains." G,2 E2 C2 =B,2 C4 | %7
 B,4 B,2 G,2 G,2 B,2 | A,4 G,2 A,2 B,2 (G,2- | G,2 ^F,=E, F,2) G,6 :| %10
V:4
 G,2 | G,2 ^F,2 G,2 D,4 E,2 | C,2 C,2 B,,2 F,4 F,2 | B,2 A,2 C2 F,4 G,2 | B,2 E,2 F,2 B,,4 x2 | %5
 B,,2 E,2 D,2 C,2 B,,2 B,,2 | E,2 C,2 C,2 G,2 C,4 | E,4 D,2 E,2 C,2 B,,2 | F,4 G,2 F,2 (B,,3 C,) | %9
 D,6 G,6 :| %10

